X:48
T:O'Mahony's
D:"Myriad" by Gerry O'Connor
Z:Transcribed by Lionel Gueganton
L:1/8
M:4/4
K:C
|: GE EE GE DE    | CE E/E/E GA Bd  | cc' ge bg af       | Ff cF ec dB 
|  c/c/c ec AG ED | C2 E/D/C GC EG  | Fd AF dB Fe        | BF dB c/c/c cA  :|
|: Ge e/e/e ef ed | ce e/e/e ge ed  | e/f/g c'd' e'c' gf | Gd cG dB Gd
|  Ge e/e/e ef ed | cd e/f/g c'g eg | fg ef de cd        |1 BG AB c/c/c cA :|2 BG AB cd ef
| g/g/g c'g a/a/a d'a | ge f/e/d ef ge | fa d'f ac' fa  | bf ac' fa d'f
| g/g/g c'g a/a/a d'a | ge f/e/d ef ge | fg ef de cd    | BG AB cd ef
| g/g/g c'g a/a/a d'a | ge f/e/d ef ge | fd d/d/d de fg | ag g/g/g gd ef
| g/g/g c'g a/a/a d'a | ge f/e/d ef ge | fg ef de cd    | BG AB cd ef
|: gG G/G/G EG cd | ec' bc' ag eg | fg ef de cd    | BG Ad GA Bd
|  gG G/G/G EG cd | ec' bc' ag eg | f/f/f fe de cd |1 BG AB cd ef :|2 BG AB c/c/c cA |

